!!!COM: Corelli, Arcangelo
!!!OTL: 
!!!ONM: Opus 6, No. 1
!!!OMV: 3
!!!CDT: 1653/2/17/-1713/1/8/
!!!OCY: Italia
**kern	**kern	**kern	**kern	**kern	**kern	**kern
*clefC	*clefG	*clefG	*clefG	*clefC	*clefG	*clefG
*k[f#c#]	*k[f#c#]	*k[f#c#]	*k[f#c#]	*k[f#c#]	*k[f#c#]	*k[f#c#]
*D:	*D:	*D:	*D:	*D:	*D:	*D:
*M3/4	*M3/4	*M3/4	*M3/4	*M3/4	*M3/4	*M3/4
=1	=1	=1	=1	=1	=1	=1
4d	4f#	4dd	16dd	4d	4dd	16dd
.	.	.	16ff#	.	.	16ff#
.	.	.	16aa	.	.	16aa
.	.	.	16ff#	.	.	16ff#
4D	4a	4ff# 4a	16dd	4D	4ff# 4a	16dd
.	.	.	16ff#	.	.	16ff#
.	.	.	16aa	.	.	16aa
.	.	.	16ff#	.	.	16ff#
4r	4f#	4d	16dd	4r	4d	16dd
.	.	.	16ff#	.	.	16ff#
.	.	.	16aa	.	.	16aa
.	.	.	16ff#	.	.	16ff#
=2	=2	=2	=2	=2	=2	=2
4A	4e	4r	16cc#	4A	4r	16cc#
.	.	.	16ee	.	.	16ee
.	.	.	16aa	.	.	16aa
.	.	.	16ee	.	.	16ee
4AA	2A	4cc# 4ee	16cc#	4AA	4cc# 4ee	16cc#
.	.	.	16ee	.	.	16ee
.	.	.	16aa	.	.	16aa
.	.	.	16ee	.	.	16ee
4r	.	4A	16cc#	4r	4A	16cc#
.	.	.	16ee	.	.	16ee
.	.	.	16aa	.	.	16aa
.	.	.	16ee	.	.	16ee
=3	=3	=3	=3	=3	=3	=3
4d	4f#	4r	16dd	4d	4r	16dd
.	.	.	16ff#	.	.	16ff#
.	.	.	16aa	.	.	16aa
.	.	.	16ff#	.	.	16ff#
4D	4a	4ff# 4a	16dd	4D	4ff# 4a	16dd
.	.	.	16ff#	.	.	16ff#
.	.	.	16aa	.	.	16aa
.	.	.	16ff#	.	.	16ff#
4r	4f#	4d	16dd	4r	4d	16dd
.	.	.	16ff#	.	.	16ff#
.	.	.	16aa	.	.	16aa
.	.	.	16ff#	.	.	16ff#
=4	=4	=4	=4	=4	=4	=4
4A	4e	4r	16cc#	4A	4r	16cc#
.	.	.	16ee	.	.	16ee
.	.	.	16aa	.	.	16aa
.	.	.	16ee	.	.	16ee
4AA	2A	4cc# 4ee	16cc#	4AA	4cc# 4ee	16cc#
.	.	.	16ee	.	.	16ee
.	.	.	16aa	.	.	16aa
.	.	.	16ee	.	.	16ee
4r	.	4A	16cc#	4r	4A	16cc#
.	.	.	16ee	.	.	16ee
.	.	.	16aa	.	.	16aa
.	.	.	16ee	.	.	16ee
=5	=5	=5	=5	=5	=5	=5
4d	4f#	4r	16dd	4d	4r	16dd
.	.	.	16ff#	.	.	16ff#
.	.	.	16aa	.	.	16aa
.	.	.	16ff#	.	.	16ff#
4D	4a	4a	16dd	4D	4a	16dd
.	.	.	16ff#	.	.	16ff#
.	.	.	16aa	.	.	16aa
.	.	.	16ff#	.	.	16ff#
4r	4f#	4dd	16dd	4r	4dd	16dd
.	.	.	16ff#	.	.	16ff#
.	.	.	16aa	.	.	16aa
.	.	.	16ff#	.	.	16ff#
=6	=6	=6	=6	=6	=6	=6
4.E	4.B	4.dd	4.g#	4.E	4.dd	4.g#
8E	8B	8ee	8g#	8E	8ee	8g#
4F#	4A	8cc#	4a	4F#	8cc#	4a
.	.	8b	.	.	8b	.
=7	=7	=7	=7	=7	=7	=7
4D	4f#	8cc#	4a	4D	8cc#	4a
.	.	8dd	.	.	8dd	.
4E	4.B	2b	4.a	4E	2b	4.a
4EE	.	.	.	4EE	.	.
.	8e	.	8g#	.	.	8g#
=8	=8	=8	=8	=8	=8	=8
4A	2c#	16a	4a	4A	16a	4a
.	.	16aa	.	.	16aa	.
.	.	16gg	.	.	16gg	.
.	.	16aa	.	.	16aa	.
4AA	.	16ee	4cc#	4AA	16ee	4cc#
.	.	16aa	.	.	16aa	.
.	.	16gg	.	.	16gg	.
.	.	16aa	.	.	16aa	.
4r	4r	16ee	4A	4r	16ee	4A
.	.	16aa	.	.	16aa	.
.	.	16gg	.	.	16gg	.
.	.	16aa	.	.	16aa	.
=9	=9	=9	=9	=9	=9	=9
4d	4a	16ff#	4r	4d	16ff#	4r
.	.	16dd	.	.	16dd	.
.	.	16cc#	.	.	16cc#	.
.	.	16dd	.	.	16dd	.
4D	4d	16a	4ff#	4D	16a	4ff#
.	.	16dd	.	.	16dd	.
.	.	16cc#	.	.	16cc#	.
.	.	16dd	.	.	16dd	.
4r	4f#	16a	4d	4r	16a	4d
.	.	16dd	.	.	16dd	.
.	.	16cc#	.	.	16cc#	.
.	.	16dd	.	.	16dd	.
=10	=10	=10	=10	=10	=10	=10
4G	2g	16b	4r	4G	16b	4r
.	.	16dd	.	.	16dd	.
.	.	16cc#	.	.	16cc#	.
.	.	16dd	.	.	16dd	.
4GG	.	16b	4b	4GG	16b	4b
.	.	16dd	.	.	16dd	.
.	.	16cc#	.	.	16cc#	.
.	.	16dd	.	.	16dd	.
4r	4r	16b	4G	4r	16b	4G
.	.	16cc#	.	.	16cc#	.
.	.	16dd	.	.	16dd	.
.	.	16b	.	.	16b	.
=11	=11	=11	=11	=11	=11	=11
4e	4b	16g#	4r	4e	16g#	4r
.	.	16b	.	.	16b	.
.	.	16ee	.	.	16ee	.
.	.	16b	.	.	16b	.
4E	4e	16g#	4ee	4E	16g#	4ee
.	.	16b	.	.	16b	.
.	.	16ee	.	.	16ee	.
.	.	16b	.	.	16b	.
4r	4g#	16g#	4e	4r	16g#	4e
.	.	16b	.	.	16b	.
.	.	16ee	.	.	16ee	.
.	.	16b	.	.	16b	.
=12	=12	=12	=12	=12	=12	=12
4A	2a	16a	4r	4A	16a	4r
.	.	16cc#	.	.	16cc#	.
.	.	16ee	.	.	16ee	.
.	.	16cc#	.	.	16cc#	.
4AA	.	16a	4cc# 4ee	4AA	16a	4cc# 4ee
.	.	16cc#	.	.	16cc#	.
.	.	16ee	.	.	16ee	.
.	.	16cc#	.	.	16cc#	.
4r	4r	16a	4A	4r	16a	4A
.	.	16cc#	.	.	16cc#	.
.	.	16ee	.	.	16ee	.
.	.	16cc#	.	.	16cc#	.
=13	=13	=13	=13	=13	=13	=13
4f#	4cc#	16a#	4r	4f#	16a#	4r
.	.	16cc#	.	.	16cc#	.
.	.	16ff#	.	.	16ff#	.
.	.	16cc#	.	.	16cc#	.
4F#	4f#	16a#	4ff#	4F#	16a#	4ff#
.	.	16cc#	.	.	16cc#	.
.	.	16ff#	.	.	16ff#	.
.	.	16cc#	.	.	16cc#	.
4r	4a#	16a#	4f#	4r	16a#	4f#
.	.	16cc#	.	.	16cc#	.
.	.	16ff#	.	.	16ff#	.
.	.	16cc#	.	.	16cc#	.
=14	=14	=14	=14	=14	=14	=14
4B	2b	16b	4r	4B	16b	4r
.	.	16dd	.	.	16dd	.
.	.	16ff#	.	.	16ff#	.
.	.	16dd	.	.	16dd	.
4BB	.	16b	4dd 4ff#	4BB	16b	4dd 4ff#
.	.	16dd	.	.	16dd	.
.	.	16ff#	.	.	16ff#	.
.	.	16dd	.	.	16dd	.
4r	4r	16b	4B	4r	16b	4B
.	.	16dd	.	.	16dd	.
.	.	16ff#	.	.	16ff#	.
.	.	16dd	.	.	16dd	.
=15	=15	=15	=15	=15	=15	=15
4G	4dd	16b	4r	4G	16b	4r
.	.	16dd	.	.	16dd	.
.	.	16gg	.	.	16gg	.
.	.	16dd	.	.	16dd	.
4GG	4g	16b	4b	4GG	16b	4b
.	.	16dd	.	.	16dd	.
.	.	16gg	.	.	16gg	.
.	.	16dd	.	.	16dd	.
4r	4b	16b	4gg	4r	16b	4gg
.	.	16dd	.	.	16dd	.
.	.	16gg	.	.	16gg	.
.	.	16dd	.	.	16dd	.
=16	=16	=16	=16	=16	=16	=16
4.A	4.e	4.cc#	4.gg	4.A	4.cc#	4.gg
8A	8e	8cc#	8aa	8A	8cc#	8aa
4B	4d	4dd	8ff#	4B	4dd	8ff#
.	.	.	8ee	.	.	8ee
=17	=17	=17	=17	=17	=17	=17
4G	4b	4dd	8ff#	4G	4dd	8ff#
.	.	.	8gg	.	.	8gg
4A	4.e	4.dd	2ee	4A	4.dd	2ee
4AA	.	.	.	4AA	.	.
.	8a	8cc#	.	.	8cc#	.
=18	=18	=18	=18	=18	=18	=18
2D	2f#	4dd	16dd	2D	4dd	16dd
.	.	.	16ff#	.	.	16ff#
.	.	.	16aa	.	.	16aa
.	.	.	16ff#	.	.	16ff#
.	.	4ff# 4a	16dd	.	4ff# 4a	16dd
.	.	.	16ff#	.	.	16ff#
.	.	.	16aa	.	.	16aa
.	.	.	16ff#	.	.	16ff#
4r	4r	4d	16dd	4r	4d	16dd
.	.	.	16ff#	.	.	16ff#
.	.	.	16aa	.	.	16aa
.	.	.	16ff#	.	.	16ff#
=19	=19	=19	=19	=19	=19	=19
4A	4e	4r	16cc#	4A	4r	16cc#
.	.	.	16ee	.	.	16ee
.	.	.	16aa	.	.	16aa
.	.	.	16ee	.	.	16ee
4AA	4a	4cc# 4ee	16cc#	4AA	4cc# 4ee	16cc#
.	.	.	16ee	.	.	16ee
.	.	.	16aa	.	.	16aa
.	.	.	16ee	.	.	16ee
4r	4e	4A	16cc#	4r	4A	16cc#
.	.	.	16ee	.	.	16ee
.	.	.	16aa	.	.	16aa
.	.	.	16ee	.	.	16ee
=20	=20	=20	=20	=20	=20	=20
4D	2f#	16r	4dd	4D	16r	4dd
.	.	16ff#	.	.	16ff#	.
.	.	16aa	.	.	16aa	.
.	.	16ff#	.	.	16ff#	.
4DD	.	16dd	4ff# 4a	4DD	16dd	4ff# 4a
.	.	16ff#	.	.	16ff#	.
.	.	16aa	.	.	16aa	.
.	.	16ff#	.	.	16ff#	.
4r	4r	16dd	4d	4r	16dd	4d
.	.	16ff#	.	.	16ff#	.
.	.	16aa	.	.	16aa	.
.	.	16ff#	.	.	16ff#	.
=21	=21	=21	=21	=21	=21	=21
4F#	4c#	16a#	4r	4F#	16a#	4r
.	.	16cc#	.	.	16cc#	.
.	.	16ff#	.	.	16ff#	.
.	.	16cc#	.	.	16cc#	.
4A#	4f#	16a#	4cc#	4A#	16a#	4cc#
.	.	16cc#	.	.	16cc#	.
.	.	16ff#	.	.	16ff#	.
.	.	16cc#	.	.	16cc#	.
4F#	4c#	16a#	4f#	4F#	16a#	4f#
.	.	16cc#	.	.	16cc#	.
.	.	16ff#	.	.	16ff#	.
.	.	16cc#	.	.	16cc#	.
=22	=22	=22	=22	=22	=22	=22
4B	2d	4b	16r	4B	4b	16r
.	.	.	16dd	.	.	16dd
.	.	.	16ff#	.	.	16ff#
.	.	.	16dd	.	.	16dd
2BB	.	4dd 4ff#	16b	2BB	4dd 4ff#	16b
.	.	.	16dd	.	.	16dd
.	.	.	16ff#	.	.	16ff#
.	.	.	16dd	.	.	16dd
.	4r	4B	16b	.	4B	16b
.	.	.	16dd	.	.	16dd
.	.	.	16ff#	.	.	16ff#
.	.	.	16dd	.	.	16dd
=23	=23	=23	=23	=23	=23	=23
4E	4B	4r	16g#	4E	4r	16g#
.	.	.	16b	.	.	16b
.	.	.	16ee	.	.	16ee
.	.	.	16b	.	.	16b
4G#	4e	4b	16g#	4G#	4b	16g#
.	.	.	16b	.	.	16b
.	.	.	16ee	.	.	16ee
.	.	.	16b	.	.	16b
4E	4B	4e	16g#	4E	4e	16g#
.	.	.	16b	.	.	16b
.	.	.	16ee	.	.	16ee
.	.	.	16b	.	.	16b
=24	=24	=24	=24	=24	=24	=24
4A	2c#	16r	4a	4A	16r	4a
.	.	16cc#	.	.	16cc#	.
.	.	16ee	.	.	16ee	.
.	.	16cc#	.	.	16cc#	.
2AA	.	16a	4ee 4cc#	2AA	16a	4ee 4cc#
.	.	16cc#	.	.	16cc#	.
.	.	16ee	.	.	16ee	.
.	.	16cc#	.	.	16cc#	.
.	4r	16a	4A	.	16a	4A
.	.	16cc#	.	.	16cc#	.
.	.	16ee	.	.	16ee	.
.	.	16cc#	.	.	16cc#	.
=25	=25	=25	=25	=25	=25	=25
4C#	4g#	16e#	4r	4C#	16e#	4r
.	.	16g#	.	.	16g#	.
.	.	16cc#	.	.	16cc#	.
.	.	16g#	.	.	16g#	.
4E#	4cc#	16e#	4g#	4E#	16e#	4g#
.	.	16g#	.	.	16g#	.
.	.	16cc#	.	.	16cc#	.
.	.	16g#	.	.	16g#	.
4C#	4g#	16e#	4c#	4C#	16e#	4c#
.	.	16g#	.	.	16g#	.
.	.	16cc#	.	.	16cc#	.
.	.	16g#	.	.	16g#	.
=26	=26	=26	=26	=26	=26	=26
4f#	4a	4f#	16aa	4f#	4f#	16aa
.	.	.	16bb	.	.	16bb
.	.	.	16aa	.	.	16aa
.	.	.	16bb	.	.	16bb
4F#	4dd	4a	16aa	4F#	4a	16aa
.	.	.	16bb	.	.	16bb
.	.	.	16aa	.	.	16aa
.	.	.	16bb	.	.	16bb
4r	4d	4dd	16aa	4r	4dd	16aa
.	.	.	16bb	.	.	16bb
.	.	.	16aa	.	.	16aa
.	.	.	16bb	.	.	16bb
=27	=27	=27	=27	=27	=27	=27
4e	4r	4r	16gg#	4e	4r	16gg#
.	.	.	16aa	.	.	16aa
.	.	.	16gg#	.	.	16gg#
.	.	.	16aa	.	.	16aa
4E	4cc#	4g#	16gg#	4E	4g#	16gg#
.	.	.	16aa	.	.	16aa
.	.	.	16gg#	.	.	16gg#
.	.	.	16aa	.	.	16aa
4r	4c#	4cc#	16gg#	4r	4cc#	16gg#
.	.	.	16aa	.	.	16aa
.	.	.	16gg#	.	.	16gg#
.	.	.	16aa	.	.	16aa
=28	=28	=28	=28	=28	=28	=28
4d	4r	4r	16ff#	4d	4r	16ff#
.	.	.	16gg#	.	.	16gg#
.	.	.	16ff#	.	.	16ff#
.	.	.	16gg#	.	.	16gg#
4D	4b	4f#	16ff#	4D	4f#	16ff#
.	.	.	16gg#	.	.	16gg#
.	.	.	16ff#	.	.	16ff#
.	.	.	16gg#	.	.	16gg#
4r	4B	4b	16ff#	4r	4b	16ff#
.	.	.	16aa	.	.	16aa
.	.	.	16gg#	.	.	16gg#
.	.	.	16ff#	.	.	16ff#
=29	=29	=29	=29	=29	=29	=29
4.c#	4.g#	4.b	4.ee#	4.c#	4.b	4.ee#
8E#	8g#	8cc#	8cc#	8E#	8cc#	8cc#
4F#	4f#	4a	8ff#	4F#	4a	8ff#
.	.	.	8cc#	.	.	8cc#
=30	=30	=30	=30	=30	=30	=30
4BB	8d	8g#	8b	4BB	8g#	8b
.	8f#	8f#	8a	.	8f#	8a
4C#	4.c#	4.f#	2g#	4C#	4.f#	2g#
4CC#	.	.	.	4CC#	.	.
.	8c#	8e#	.	.	8e#	.
=31	=31	=31	=31	=31	=31	=31
4F#	2c#	2f#	16f#	4F#	2f#	16f#
.	.	.	16aa	.	.	16aa
.	.	.	16gg#	.	.	16gg#
.	.	.	16aa	.	.	16aa
4FF#	.	.	16ff#	4FF#	.	16ff#
.	.	.	16aa	.	.	16aa
.	.	.	16gg#	.	.	16gg#
.	.	.	16aa	.	.	16aa
4r	4r	4r	16ff#	4r	4r	16ff#
.	.	.	16aa	.	.	16aa
.	.	.	16gg#	.	.	16gg#
.	.	.	16aa	.	.	16aa
=32	=32	=32	=32	=32	=32	=32
4B	4b	16ff#	4dd#	4B	16ff#	4dd#
.	.	16bb	.	.	16bb	.
.	.	16aa	.	.	16aa	.
.	.	16bb	.	.	16bb	.
4D#	4B	16ff#	4B	4D#	16ff#	4B
.	.	16bb	.	.	16bb	.
.	.	16aa	.	.	16aa	.
.	.	16bb	.	.	16bb	.
4BB	4d#	16ff#	4r	4BB	16ff#	4r
.	.	16bb	.	.	16bb	.
.	.	16aa	.	.	16aa	.
.	.	16bb	.	.	16bb	.
=33	=33	=33	=33	=33	=33	=33
4E	2e	4gg	16ee	4E	4gg	16ee
.	.	.	16gg	.	.	16gg
.	.	.	16ff#	.	.	16ff#
.	.	.	16gg	.	.	16gg
4EE	.	4e	16ee	4EE	4e	16ee
.	.	.	16gg	.	.	16gg
.	.	.	16ff#	.	.	16ff#
.	.	.	16gg	.	.	16gg
4r	4r	4r	16ee	4r	4r	16ee
.	.	.	16gg	.	.	16gg
.	.	.	16ff#	.	.	16ff#
.	.	.	16gg	.	.	16gg
=34	=34	=34	=34	=34	=34	=34
4A	4a	16ee	4cc#	4A	16ee	4cc#
.	.	16aa	.	.	16aa	.
.	.	16gg	.	.	16gg	.
.	.	16aa	.	.	16aa	.
4C#	4A	16ee	4A	4C#	16ee	4A
.	.	16aa	.	.	16aa	.
.	.	16gg	.	.	16gg	.
.	.	16aa	.	.	16aa	.
4AA	4c#	16ee	4r	4AA	16ee	4r
.	.	16aa	.	.	16aa	.
.	.	16gg	.	.	16gg	.
.	.	16aa	.	.	16aa	.
=35	=35	=35	=35	=35	=35	=35
4D	4d	4ff#	16a	4D	4ff#	16a
.	.	.	16dd	.	.	16dd
.	.	.	16cc#	.	.	16cc#
.	.	.	16dd	.	.	16dd
4DD	4f#	4a	16a	4DD	4a	16a
.	.	.	16dd	.	.	16dd
.	.	.	16cc#	.	.	16cc#
.	.	.	16dd	.	.	16dd
4r	4d	4f#	16a	4r	4f#	16a
.	.	.	16dd	.	.	16dd
.	.	.	16cc#	.	.	16cc#
.	.	.	16dd	.	.	16dd
=36	=36	=36	=36	=36	=36	=36
4G	4r	4r	16b	4G	4r	16b
.	.	.	16ee	.	.	16ee
.	.	.	16dd	.	.	16dd
.	.	.	16ee	.	.	16ee
4GG	4g	4b	16b	4GG	4b	16b
.	.	.	16ee	.	.	16ee
.	.	.	16dd	.	.	16dd
.	.	.	16ee	.	.	16ee
4r	4e	4G	16b	4r	4G	16b
.	.	.	16ee	.	.	16ee
.	.	.	16dd	.	.	16dd
.	.	.	16ee	.	.	16ee
=37	=37	=37	=37	=37	=37	=37
4A	4r	4r	16cc#	4A	4r	16cc#
.	.	.	16ff#	.	.	16ff#
.	.	.	16ee	.	.	16ee
.	.	.	16ff#	.	.	16ff#
4AA	4a	4cc#	16cc#	4AA	4cc#	16cc#
.	.	.	16ff#	.	.	16ff#
.	.	.	16ee	.	.	16ee
.	.	.	16ff#	.	.	16ff#
4r	4f#	4A	16cc#	4r	4A	16cc#
.	.	.	16ff#	.	.	16ff#
.	.	.	16ee	.	.	16ee
.	.	.	16ff#	.	.	16ff#
=38	=38	=38	=38	=38	=38	=38
4B	4r	4r	16dd	4B	4r	16dd
.	.	.	16gg	.	.	16gg
.	.	.	16ff#	.	.	16ff#
.	.	.	16gg	.	.	16gg
4BB	4b	4dd	16dd	4BB	4dd	16dd
.	.	.	16gg	.	.	16gg
.	.	.	16ff#	.	.	16ff#
.	.	.	16gg	.	.	16gg
4r	4g	4B	16dd	4r	4B	16dd
.	.	.	16gg	.	.	16gg
.	.	.	16ff#	.	.	16ff#
.	.	.	16gg	.	.	16gg
=39	=39	=39	=39	=39	=39	=39
4c#	4r	4r	16ee	4c#	4r	16ee
.	.	.	16aa	.	.	16aa
.	.	.	16gg	.	.	16gg
.	.	.	16aa	.	.	16aa
4C#	4cc#	4ee	16ee	4C#	4ee	16ee
.	.	.	16aa	.	.	16aa
.	.	.	16gg	.	.	16gg
.	.	.	16aa	.	.	16aa
4r	4a	4c#	16ee	4r	4c#	16ee
.	.	.	16aa	.	.	16aa
.	.	.	16gg	.	.	16gg
.	.	.	16aa	.	.	16aa
=40	=40	=40	=40	=40	=40	=40
4d	4r	16r	4ff#	4d	16r	4ff#
.	.	16aa	.	.	16aa	.
.	.	16gg	.	.	16gg	.
.	.	16aa	.	.	16aa	.
4D	4dd	16ff#	4ff#	4D	16ff#	4ff#
.	.	16aa	.	.	16aa	.
.	.	16gg	.	.	16gg	.
.	.	16aa	.	.	16aa	.
4r	4d	16ff#	4b	4r	16ff#	4b
.	.	16bb	.	.	16bb	.
.	.	16aa	.	.	16aa	.
.	.	16bb	.	.	16bb	.
=41	=41	=41	=41	=41	=41	=41
4c#	4r	16ee	4r	4c#	16ee	4r
.	.	16aa	.	.	16aa	.
.	.	16gg	.	.	16gg	.
.	.	16aa	.	.	16aa	.
4C#	4cc#	16ee	4ee	4C#	16ee	4ee
.	.	16aa	.	.	16aa	.
.	.	16gg	.	.	16gg	.
.	.	16aa	.	.	16aa	.
4r	4c#	16ee	4a	4r	16ee	4a
.	.	16aa	.	.	16aa	.
.	.	16gg	.	.	16gg	.
.	.	16aa	.	.	16aa	.
=42	=42	=42	=42	=42	=42	=42
4B	4r	16dd	4r	4B	16dd	4r
.	.	16gg	.	.	16gg	.
.	.	16ff#	.	.	16ff#	.
.	.	16gg	.	.	16gg	.
4BB	4b	16dd	4dd	4BB	16dd	4dd
.	.	16gg	.	.	16gg	.
.	.	16ff#	.	.	16ff#	.
.	.	16gg	.	.	16gg	.
4r	4B	16dd	4g	4r	16dd	4g
.	.	16gg	.	.	16gg	.
.	.	16ff#	.	.	16ff#	.
.	.	16gg	.	.	16gg	.
=43	=43	=43	=43	=43	=43	=43
4A	4r	16cc#	4r	4A	16cc#	4r
.	.	16ff#	.	.	16ff#	.
.	.	16ee	.	.	16ee	.
.	.	16ff#	.	.	16ff#	.
4AA	4a	16cc#	4cc#	4AA	16cc#	4cc#
.	.	16ff#	.	.	16ff#	.
.	.	16ee	.	.	16ee	.
.	.	16ff#	.	.	16ff#	.
4r	4A	16cc#	4f#	4r	16cc#	4f#
.	.	16ff#	.	.	16ff#	.
.	.	16ee	.	.	16ee	.
.	.	16ff#	.	.	16ff#	.
=44	=44	=44	=44	=44	=44	=44
4G	4r	16b	4r	4G	16b	4r
.	.	16ee	.	.	16ee	.
.	.	16dd	.	.	16dd	.
.	.	16ee	.	.	16ee	.
4GG	4g	16b	4b	4GG	16b	4b
.	.	16ee	.	.	16ee	.
.	.	16dd	.	.	16dd	.
.	.	16ee	.	.	16ee	.
4r	4G	16b	4e	4r	16b	4e
.	.	16ee	.	.	16ee	.
.	.	16dd	.	.	16dd	.
.	.	16ee	.	.	16ee	.
=45	=45	=45	=45	=45	=45	=45
2G	4.e	4.a	4c#	2G	4.a	4c#
.	.	.	4A	.	.	4A
.	8e	8cc#	.	.	8cc#	.
4F#	4f#	4dd	4a	4F#	4dd	4a
=46	=46	=46	=46	=46	=46	=46
4G	4b	4d	8g	4G	4d	8g
.	.	.	8f#	.	.	8f#
4A	4.a	4.d	4.e	4A	4.d	4.e
4AA	.	.	.	4AA	.	.
.	8a	8c#	8a	.	8c#	8a
=47	=47	=47	=47	=47	=47	=47
2D	2a	2d	2f#	2D	2d	2f#
4GG	4B	4d	4b	4GG	4d	4b
=48	=48	=48	=48	=48	=48	=48
2GG	2A	2e	2c#	2GG	2e	2c#
4FF#	[4d	[4f#	[4d	4FF#	[4f#	[4d
=49	=49	=49	=49	=49	=49	=49
4GG	4d]	4f#]	4d]	4GG	4f#]	4d]
2AA	2A	4.e	4.d	2AA	4.e	4.d
.	.	8a	8c#	.	8a	8c#
=50	=50	=50	=50	=50	=50	=50
2.DD	2.A	2.f#	2.d	2.DD	2.f#	2.d
==	==	==	==	==	==	==
*-	*-	*-	*-	*-	*-	*-
!!!RWG: This file only contains pitch and duration data.
!!!RWG: Transposing instruments are not transposed.
!!!RWG: Durations of rests and tied notes may be interpreted.
!!!RWG: Key is interpreted using the Humdrum key tool.
!!!SCA: 
!!!YOR: Chrysander Edition
!!!AGN: concerto grosso
!!!AFT: stage1
!!!ENC: F. Bennion
!!!END: 1997/04/15
!!!AST: baroque
!!!YEC: Copyright 1994, Center for Computer Assisted Research in the Humanities
!!!YEM: Rights to all derivative electronic formats reserved.
!!!YEM: Refer to licensing agreement for further details.
!!!YEN: United States of America
!!!EED: W.B. Hewlett
!!!KEY: 2602220475
!!!EMD: Converted from MuseData to Humdrum Aug 2, 1999, by Bret Aarden using muse2kern.
!!!VTS: 458918841
